logos/simple.svg

<svg viewBox="-100 -100 666 200" xmlns="http://www.w3.org/2000/svg" xmlns:xlink="http://www.w3.org/1999/xlink">
 <defs>
  <rect id="c" rx="70" ry="70" x="-64" y="-97" width="126" height="190" stroke-width="3"/>
  <rect id="d" rx="70" ry="70" x="-64" y="-95" width="125" height="192" stroke-width="3"/>
  <use id="w" xlink:href="#c" fill="#fff"/>
  <use id="W" xlink:href="#d" fill="#fff"/>
  <use id="g" xlink:href="#c" fill="none"/>
  <use id="r" xlink:href="#d" fill="none"/>
 </defs>
 <use xlink:href="#W" transform="rotate(135)"/>
 <use xlink:href="#w" transform="rotate(-10)"/>
 <use xlink:href="#w" transform="rotate(27)"/>
 <use xlink:href="#W" transform="rotate(63)"/>
 <use xlink:href="#W" transform="rotate(99)"/>
 <use xlink:href="#r" stroke="#3a8495" transform="rotate(135)"/>
 <use xlink:href="#g" stroke="#ec9987" transform="rotate(-9)"/>
 <use xlink:href="#g" stroke="#3a8495" transform="rotate(27)"/>
 <use xlink:href="#r" stroke="#e57860" transform="rotate(63)"/>
 <use xlink:href="#r" stroke="#629daa" transform="rotate(99)"/>
 <g fill="#333433">
  <path d="m186.49 34.47c-5.24 0-10.25-.89-15.03-2.67-4.79-1.77-9.22-4.51-13.29-8.19 0 0 7.18-8.54 7.18-8.54 3.29 2.85 6.62 5.03 9.99 6.55 3.36 1.52 7.18 2.28 11.44 2.28 3.69 0 6.61-.78 8.78-2.33s3.25-3.62 3.25-6.21v-.19c0-1.23-.21-2.31-.63-3.25s-1.2-1.83-2.33-2.67c-1.14-.84-2.7-1.61-4.67-2.33-1.98-.71-4.56-1.42-7.73-2.13-3.63-.84-6.86-1.79-9.68-2.86s-5.18-2.36-7.1-3.88c-1.91-1.52-3.37-3.38-4.37-5.58-1.01-2.2-1.51-4.85-1.51-7.95v-.20c0-2.91.58-5.57 1.73-8 1.15-2.42 2.74-4.49 4.76-6.21 2.02-1.71 4.45-3.05 7.29-4.02s5.94-1.46 9.3-1.46c4.98 0 9.46.73 13.44 2.19 3.98 1.45 7.71 3.57 11.2 6.35 0 0-6.4 9.02-6.4 9.02-3.1-2.26-6.18-3.99-9.21-5.19-3.05-1.19-6.12-1.79-9.22-1.79-3.49 0-6.21.77-8.15 2.33-1.94 1.55-2.91 3.46-2.91 5.72v.19c0 1.3.23 2.44.68 3.45.46 1 1.28 1.9 2.48 2.71s2.85 1.57 4.96 2.28 4.78 1.46 8.02 2.23c3.57.91 6.73 1.91 9.49 3.01 2.75 1.1 5.04 2.44 6.85 4.02 1.82 1.59 3.19 3.43 4.13 5.53.94 2.11 1.41 4.55 1.41 7.33v.19c0 3.17-.59 6.01-1.78 8.54-1.18 2.52-2.84 4.65-4.95 6.4-2.12 1.74-4.66 3.07-7.63 3.98-2.97.90-6.23 1.35-9.79 1.35"/>
  <path d="m237.32-34.4h11.83v67.9h-11.83v-67.9"/>
  <path d="m316.04 11.38h-7.64s-17.61-26.38-17.61-26.38v48.5h-11.83v-67.9h12.7s20.67 32.11 20.67 32.11 20.66-32.11 20.66-32.11h12.7v67.9h-11.83v-48.69s-17.82 26.57-17.82 26.57"/>
  <path d="m374.65-34.4h26.77c3.95 0 7.52.53 10.72 1.6s5.92 2.61 8.15 4.61 3.94 4.4 5.14 7.18 1.8 5.88 1.8 9.31v.19c0 3.82-.72 7.17-2.14 10.04-1.43 2.88-3.37 5.29-5.84 7.23-2.46 1.94-5.34 3.41-8.65 4.41-3.31 1.01-6.84 1.51-10.6 1.51h-13.51v21.82h-11.84v-67.9m25.76 35.31c4.54 0 8.12-1.14 10.75-3.41s3.94-5.19 3.94-8.76v-.20c0-4.02-1.33-7.06-3.99-9.1-2.66-2.05-6.23-3.07-10.7-3.07h-13.92v24.54h13.92"/>
  <path d="m446.95-34.4h11.83v57.13h35.7v10.77h-47.53v-67.9"/>
  <path d="m517.49-34.4h50.73v10.77h-38.89v17.46h37.35s.02 10.77.02 10.77h-37.37v18.14h38.89v10.76h-50.73v-67.9"/>
 </g>
</svg>

<svg viewBox="-100 -100 666 200" xmlns="http://www.w3.org/2000/svg" xmlns:xlink="http://www.w3.org/1999/xlink">
 <defs>
  <rect id="c" rx="70" ry="70" x="-64" y="-97" width="126" height="190" stroke-width="3"/>
  <rect id="d" rx="70" ry="70" x="-64" y="-95" width="125" height="192" stroke-width="3"/>
  <use id="w" xlink:href="#c" fill="#fff"/>
  <use id="W" xlink:href="#d" fill="#fff"/>
  <use id="g" xlink:href="#c" fill="none"/>
  <use id="r" xlink:href="#d" fill="none"/>
 </defs>
 <use xlink:href="#W" transform="rotate(135)"/>
 <use xlink:href="#w" transform="rotate(-10)"/>
 <use xlink:href="#w" transform="rotate(27)"/>
 <use xlink:href="#W" transform="rotate(63)"/>
 <use xlink:href="#W" transform="rotate(99)"/>
 <use xlink:href="#r" stroke="#3a8495" transform="rotate(135)"/>
 <use xlink:href="#g" stroke="#ec9987" transform="rotate(-9)"/>
 <use xlink:href="#g" stroke="#3a8495" transform="rotate(27)"/>
 <use xlink:href="#r" stroke="#e57860" transform="rotate(63)"/>
 <use xlink:href="#r" stroke="#629daa" transform="rotate(99)"/>
 <g fill="#333433">
  <path d="M 186.49 34.47 C 181.25 34.47 176.24 33.58 171.46 31.8 C 166.67 30.03 162.24 27.29 158.17 23.61 C 158.17 23.61 165.35 15.07 165.35 15.07 C 168.64 17.92 171.97 20.1 175.34 21.62 C 178.7 23.14 182.52 23.9 186.78 23.9 C 190.47 23.9 193.39 23.12 195.56 21.57 C 197.73 20.02 198.81 17.95 198.81 15.36 C 198.81 15.36 198.81 15.17 198.81 15.17 C 198.81 13.94 198.6 12.86 198.18 11.92 C 197.76 10.98 196.98 10.09 195.85 9.25 C 194.71 8.41 193.15 7.64 191.18 6.92 C 189.2 6.21 186.62 5.5 183.45 4.79 C 179.82 3.95 176.59 3 173.77 1.93 C 170.95 0.86 168.59-0.43 166.67-1.95 C 164.76-3.47 163.3-5.33 162.3-7.53 C 161.29-9.73 160.79-12.38 160.79-15.48 C 160.79-15.48 160.79-15.68 160.79-15.68 C 160.79-18.59 161.37-21.25 162.52-23.68 C 163.67-26.1 165.26-28.17 167.28-29.89 C 169.3-31.6 171.73-32.94 174.57-33.91 C 177.41-34.88 180.51-35.37 183.87-35.37 C 188.85-35.37 193.33-34.64 197.31-33.18 C 201.29-31.73 205.02-29.61 208.51-26.83 C 208.51-26.83 202.11-17.81 202.11-17.81 C 199.01-20.07 195.93-21.8 192.9-23 C 189.85-24.19 186.78-24.79 183.68-24.79 C 180.19-24.79 177.47-24.02 175.53-22.46 C 173.59-20.91 172.62-19 172.62-16.74 C 172.62-16.74 172.62-16.55 172.62-16.55 C 172.62-15.25 172.85-14.11 173.3-13.1 C 173.76-12.1 174.58-11.2 175.78-10.39 C 176.98-9.58 178.63-8.82 180.74-8.11 C 182.85-7.4 185.52-6.65 188.76-5.88 C 192.33-4.97 195.49-3.97 198.25-2.87 C 201-1.77 203.29-0.43 205.1 1.15 C 206.92 2.74 208.29 4.58 209.23 6.68 C 210.17 8.79 210.64 11.23 210.64 14.01 C 210.64 14.01 210.64 14.2 210.64 14.2 C 210.64 17.37 210.05 20.21 208.86 22.74 C 207.68 25.26 206.02 27.39 203.91 29.14 C 201.79 30.88 199.25 32.21 196.28 33.12 C 193.31 34.02 190.05 34.47 186.49 34.47 C 186.49 34.47 186.49 34.47 186.49 34.47"/>
  <path d="M 237.32-34.4 C 237.32-34.4 249.15-34.4 249.15-34.4 C 249.15-34.4 249.15 33.5 249.15 33.5 C 249.15 33.5 237.32 33.5 237.32 33.5 C 237.32 33.5 237.32-34.4 237.32-34.4 C 237.32-34.4 237.32-34.4 237.32-34.4"/>
  <path d="M 316.04 11.38 C 316.04 11.38 308.4 11.38 308.4 11.38 C 308.4 11.38 290.79-15 290.79-15 C 290.79-15 290.79 33.5 290.79 33.5 C 290.79 33.5 278.96 33.5 278.96 33.5 C 278.96 33.5 278.96-34.4 278.96-34.4 C 278.96-34.4 291.66-34.4 291.66-34.4 C 291.66-34.4 312.33-2.29 312.33-2.29 C 312.33-2.29 332.99-34.4 332.99-34.4 C 332.99-34.4 345.69-34.4 345.69-34.4 C 345.69-34.4 345.69 33.5 345.69 33.5 C 345.69 33.5 333.86 33.5 333.86 33.5 C 333.86 33.5 333.86-15.19 333.86-15.19 C 333.86-15.19 316.04 11.38 316.04 11.38"/>
  <path d="M 374.65-34.4 C 374.65-34.4 401.42-34.4 401.42-34.4 C 405.37-34.4 408.94-33.87 412.14-32.8 C 415.34-31.73 418.06-30.19 420.29-28.19 C 422.52-26.19 424.23-23.79 425.43-21.01 C 426.63-18.23 427.23-15.13 427.23-11.7 C 427.23-11.7 427.23-11.51 427.23-11.51 C 427.23-7.69 426.51-4.34 425.09-1.47 C 423.66 1.41 421.72 3.82 419.25 5.76 C 416.79 7.7 413.91 9.17 410.6 10.17 C 407.29 11.18 403.76 11.68 400 11.68 C 400 11.68 386.49 11.68 386.49 11.68 C 386.49 11.68 386.49 33.5 386.49 33.5 C 386.49 33.5 374.65 33.5 374.65 33.5 C 374.65 33.5 374.65-34.4 374.65-34.4 C 374.65-34.4 374.65-34.4 374.65-34.4 M 400.41 0.91 C 404.95 0.91 408.53-0.23 411.16-2.5 C 413.79-4.77 415.1-7.69 415.1-11.26 C 415.1-11.26 415.1-11.46 415.1-11.46 C 415.1-15.48 413.77-18.52 411.11-20.56 C 408.45-22.61 404.88-23.63 400.41-23.63 C 400.41-23.63 386.49-23.63 386.49-23.63 C 386.49-23.63 386.49 0.91 386.49 0.91 C 386.49 0.91 400.41 0.91 400.41 0.91 C 400.41 0.91 400.41 0.91 400.41 0.91"/>
  <path d="M 446.95-34.4 C 446.95-34.4 458.78-34.4 458.78-34.4 C 458.78-34.4 458.78 22.73 458.78 22.73 C 458.78 22.73 494.48 22.73 494.48 22.73 C 494.48 22.73 494.48 33.5 494.48 33.5 C 494.48 33.5 446.95 33.5 446.95 33.5 C 446.95 33.5 446.95-34.4 446.95-34.4 C 446.95-34.4 446.95-34.4 446.95-34.4"/>
  <path d="M 517.49-34.4 C 517.49-34.4 568.22-34.4 568.22-34.4 C 568.22-34.4 568.22-23.63 568.22-23.63 C 568.22-23.63 529.33-23.63 529.33-23.63 C 529.33-23.63 529.33-6.17 529.33-6.17 C 529.33-6.17 566.68-6.17 566.68-6.17 C 566.68-6.17 566.7 4.6 566.7 4.6 C 566.7 4.6 529.33 4.6 529.33 4.6 C 529.33 4.6 529.33 22.74 529.33 22.74 C 529.33 22.74 568.22 22.74 568.22 22.74 C 568.22 22.74 568.22 33.5 568.22 33.5 C 568.22 33.5 517.49 33.5 517.49 33.5 C 517.49 33.5 517.49-34.4 517.49-34.4 C 517.49-34.4 517.49-34.4 517.49-34.4"/>
 </g>
</svg>
